X: 127203
T: PADDY CAREY
P: Same figure.
%R: jig
B: James Kerr "Merry Melodies" v.1 p.27 s.2 #3
Z: 2017 John Chambers <jc:trillian.mit.edu>
N: The "Same figure" annotation is a mystery.
M: 6/8
L: 1/8
K: G
uA |\
vd2vd dcd | B2d A3 | ABc def | g2e cBA |\
d2d dcd | B2d A3 | ABc def | gec d2 :|
|: uA |\
d2e f2f | fgf fed | e2d e2d | e2d e2f |\
d2e f2f | fgf fed | e2d e2f | d3 d2 :|

%%sep 1 1 500
%%sep 1 1 500

